packages/core/src/svgs/tokens/mono/BFIC.svg

<svg width="24" height="24" viewBox="0 0 24 24" fill="none" xmlns="http://www.w3.org/2000/svg">
<path d="M10.4204 4.63155H6.20996V17.7893H8.84151V7.26309H14.6309C14.952 7.26309 15.1573 7.50519 15.1573 7.7894V9.36834C15.1573 9.69994 14.952 9.89459 14.6309 9.89459H11.4731V12.5262H14.6309C14.952 12.5262 15.1573 12.8156 15.1573 13.0525V14.6314C15.1573 14.8946 14.8573 15.1578 14.6309 15.1578H11.4731V21.9998H14.1046V17.7893H15.8573C17.4888 17.7893 17.7888 16.7156 17.7888 15.9999V12.5262C17.7996 12.2538 17.7306 11.9842 17.5904 11.7505C17.4502 11.5167 17.2447 11.3291 16.9994 11.2104C17.5467 10.9262 17.7888 10.1052 17.7888 9.63154V7.33152C17.7888 5.33153 16.6151 4.63155 15.8573 4.63155H13.052V2H10.4204V4.63155Z" fill="white"/>
<path d="M8.84151 19.3684H6.20996V22H8.84151V19.3684Z" fill="white"/>
</svg>

<svg xmlns="http://www.w3.org/2000/svg" width="24" height="24" fill="none" viewBox="0 0 24 24">
    <path fill="#fff" d="M10.42 4.632H6.21v13.157h2.632V7.263h5.789c.321 0 .526.242.526.526v1.58c0 .33-.205.526-.526.526h-3.158v2.631h3.158c.321 0 .526.29.526.527v1.578c0 .264-.3.527-.526.527h-3.158V22h2.632v-4.21h1.752c1.632 0 1.932-1.074 1.932-1.79v-3.474a1.4 1.4 0 0 0-.79-1.316c.548-.284.79-1.105.79-1.578v-2.3c0-2-1.174-2.7-1.932-2.7h-2.805V2H10.42z"/>
    <path fill="#fff" d="M8.842 19.368H6.21V22h2.632z"/>
</svg>
